assets/icons/navigation/last_page.svg

<svg viewBox="0 0 24 24" xmlns="http://www.w3.org/2000/svg">
<path d="M6.02507 17.6002C5.79174 17.3669 5.67507 17.0919 5.67507 16.7752C5.67507 16.4585 5.79174 16.1919 6.02507 15.9752L9.97507 12.0002L5.97507 8.0002C5.75841 7.8002 5.65424 7.5377 5.66257 7.2127C5.67091 6.8877 5.78341 6.61686 6.00007 6.4002C6.23341 6.16686 6.50424 6.0502 6.81257 6.0502C7.12091 6.0502 7.39174 6.16686 7.62507 6.4002L12.4251 11.2002C12.5251 11.3002 12.6084 11.421 12.6751 11.5627C12.7417 11.7044 12.7751 11.8502 12.7751 12.0002C12.7751 12.1669 12.7417 12.3169 12.6751 12.4502C12.6084 12.5835 12.5251 12.7002 12.4251 12.8002L7.65007 17.6002C7.41674 17.8169 7.13757 17.9252 6.81257 17.9252C6.48757 17.9252 6.22507 17.8169 6.02507 17.6002ZM17.2501 18.5502C16.9001 18.5502 16.6209 18.446 16.4126 18.2377C16.2042 18.0294 16.1001 17.7502 16.1001 17.4002V6.5752C16.1001 6.25853 16.2042 5.99186 16.4126 5.7752C16.6209 5.55853 16.9001 5.4502 17.2501 5.4502C17.5667 5.4502 17.8334 5.55853 18.0501 5.7752C18.2667 5.99186 18.3751 6.25853 18.3751 6.5752V17.4002C18.3751 17.7502 18.2667 18.0294 18.0501 18.2377C17.8334 18.446 17.5667 18.5502 17.2501 18.5502Z" fill="inherit"/>
</svg>

<svg viewBox="0 0 24 24" xmlns="http://www.w3.org/2000/svg"><path d="M6 17.6c-.2-.2-.3-.5-.3-.8 0-.3 0-.6.3-.8l4-4-4-4a1 1 0 0 1-.3-.8c0-.3 0-.6.3-.8a1.1 1.1 0 0 1 1.6 0l4.8 4.8.3.4a1 1 0 0 1 0 .9l-.3.3-4.7 4.8-.9.3a1 1 0 0 1-.8-.3Zm11.3 1c-.4 0-.7-.2-.9-.4-.2-.2-.3-.4-.3-.8V6.6c0-.3.1-.6.3-.8.2-.2.5-.3.9-.3.3 0 .5 0 .8.3.2.2.3.5.3.8v10.8c0 .4-.1.6-.3.8-.3.2-.5.4-.8.4Z" fill="inherit"/></svg>
